X:291
T:God, Whose Almighty Word
%%stretchlast false
M:3/4
L:1/4
K:Eb clef=C1
"^I"[E,G,EB] [E,B,G] "^I¹"[G,,B,E] | "^ii¹"[A,,A,CF] "^I²"[B,,G,B,E] "^V"[B,,F,B,D] | "^I"[E,,G,B,E]3 | [E,G,B,E] "^V¹"[D,B,F] "^I"[E,B,EG] | "^V7²"[F,B,DA]/ "^V²"[F,B,DB]/ "^V7¹"[D,B,FA] "^I"[E,B,EG] | "^V"[B,,B,DF]3 | "^v"[B,B] "^iii"[G,G] "^i"[E,E] | "^v"[B,,B,]3 | "^V"[B,,B,DF] "^I²"[B,,B,EG] "^♯iii"[B,,B,FA] | "^I"[E,B,EG]3/2 "^i"[E,A,DF]/ "^I"[E,G,E] | "^V"[B,,B,DF] "^I²"[B,,B,EG] "^♯iii"[B,,B,FA] | "^I"[E,B,EG]3/2 "^i"[E,A,DF]/ "^I"[E,G,E] | "^i"[E,E] "^iii"[G,G] "^v"[B,B] | "^I"[E,G,EB]3/2 "^IV²"[E,A,Ec]/ "^I"[E,G,EB] | "^ii¹"[A,,CFA] "^I²"[B,,B,EG] "^V7"[B,,A,DF] | "^I"[E,G,E]3 |]
